X: 14
T: Praeludia organi op. 5 – Andante
C: Franciszek Walczyński
%%abc-version 2.0
%%abcx-abcm2ps-target-version 5.9.1 (29 Sep 2008)
%%abc-creator hum2abc beta
%%abcx-conversion-date 2021/10/04 07:38:40
%%abc-edited-by Andrzej Borzym
%%abc-edited-by Krzysztof Stępień
%%abcx-initial-encoding-date 2021-07-26
%%humdrum-veritas 243288535
%%humdrum-veritas-data 312693750
%%linebreak <none>
%%barnumbers 0
L: 1/4
M: C
N: Derived from pl-kozmzk--mzk-m-159--003_walczynski-franciszek--praeludia-organi-op-5-andante.krn
Q: "3. Andante"
%%staves {1 2}
V: 1 clef=treble
V: 2 clef=bass
K: G
[V:1] z4 & z4 | 
[V:2] z4 & G,F,G,E, | 
[V:1] z4 & z4 | 
[V:2] z4 & D,2C,2 | 
[V:1] z4 & z4 | 
[V:2] GFGE & B,,D,/C,/B,,C, | 
[V:1] z4 & z4 | 
[V:2] D2C2 & D,A,E,F, | 
[V:1] z4 & z4 | 
[V:2] B,CDA, & G,2F,2 | 
[V:1] z4 & GFGE | 
[V:2] B,3C & E,^D,E,C, | 
[V:1] z4 & D2C2 | 
[V:2] CB,A,F, & =D,4 | 
[V:1] z4 & B,DE/F/G/A/ | 
[V:2] G,A,G,/A,/B,/D/ & G,F,!accent!E,3/F,/ | 
[V:1] gfge & Bcdc | 
[V:2] D3C & G,A,B,C | 
[V:1] d2c2 & G3F | 
[V:2] D2ED & B,_B,A,2 | 
[V:1] B2d2 & G4- | 
[V:2] D2B,2 & G,F,=F,G,/F,/ | 
[V:1] c2BA & G2^GE | 
[V:2] CEDC & E,3A, | 
[V:1] =G2F2 & D3C | 
[V:2] B,_B,A,2 & D,4 | 
[V:1] G4- & B,3C | 
[V:2] G,F,G,E, & G,,4- | 
[V:1] G4- & B,^A,B,=A, | 
[V:2] D,^C,D,=C, & G,,4- | 
[V:1] !fermata!G4 & G,4 |]  
[V:2] B,,4 & !fermata!G,,4 |]  


